X:135
%%pagewidth 8.5in
%%vocalfont Baskerville10Pro 13
T:Come, shepherds, deck your heads
M:C
L:1/8
K:Bb
%%score 1 2
V:1 clef-treble
V:2 clef-bass octave=-1
V:1
G2|[B,G]2A2B2c2&x2D4^F2|d6[Bd]2&G3GG2G2|[Gce]2[Fd]2[Ec]2[DGB]2|
w:Come, Shep-herds, deck your heads No more with bays but
V:2
z2|G2^F2G2A2|B6G2|C6G,2|
V:1
[EGc]4[DB]2G2|G2A2B2c2&D6[C=F]2|d6d2&F3FF2B2|e2d2c2B2&G4A2B2|
w:wil-lows; For-sake your down-y beds, And make the downs your
V:2
(C,4G,2)z2|B2^F2G2A2|B6G2|C4F2G2|
V:1
([EAc]4[DB]2)||c2|d3cB2A2&[DA]4[D^F]4|G6[Bd]2&D3DD2D2|c2d2e2f2&F4[FA]4|[FAe]4[FBd]2[DA]2|
w:pil-lows: And mourn with me, since cross'd As ne-ver yet was no man, For
V:2
(F4B2)||z2|^F,4D2C2|B,6G,2|A,4F,4|B,6^F,2|
V:1
[CGc]3[DGB][^FA]2[DG]2|^F6G2&C2E2D2B,2|A2B2c2B2&D4[D^F]4|[C^FA]4[B,G]2||
w:shep-herd ne-ver lost So plain a deal-ing wo-man.
V:2
E3D C2B,2|A,2C2B,2E2|^F,4D4|G,6||

